Newaita-dark/apps/24/mintreport.svg

<svg height="24pt" viewBox="0 0 24 24" width="24pt" xmlns="http://www.w3.org/2000/svg" xmlns:xlink="http://www.w3.org/1999/xlink"><linearGradient id="a" gradientUnits="userSpaceOnUse" x1="11.907391" x2="11.907391" y1="21.02545125" y2="22.01773415627"><stop offset="0" stop-opacity=".27451"/><stop offset="1" stop-opacity="0"/></linearGradient><linearGradient id="b"><stop offset="0" stop-opacity=".313725"/><stop offset=".222222" stop-opacity=".27451"/><stop offset="1" stop-opacity="0"/></linearGradient><radialGradient id="c" cx="450.90894" cy="189.57936" gradientTransform="matrix(.00000013 -.0585994 -.105479 -.00000008 37.609564 47.696501)" gradientUnits="userSpaceOnUse" r="21.166656" xlink:href="#b"/><radialGradient id="d" cx="450.90894" cy="189.57936" gradientTransform="matrix(-.00000013 .0585994 .105479 .00000008 -13.794787 -5.64561)" gradientUnits="userSpaceOnUse" r="21.166656" xlink:href="#b"/><radialGradient id="e" cx="450.90894" cy="189.57936" gradientTransform="matrix(-.00000013 -.0585994 .105479 -.00000008 -13.794787 47.696501)" gradientUnits="userSpaceOnUse" r="21.166656" xlink:href="#b"/><radialGradient id="f" cx="450.90894" cy="189.57936" gradientTransform="matrix(.00000013 .0585994 -.105479 .00000008 37.609562 -5.645609)" gradientUnits="userSpaceOnUse" r="21.166656" xlink:href="#b"/><linearGradient id="g" gradientTransform="matrix(.0565122 0 0 .163059 -4.39051 25.231011)" gradientUnits="userSpaceOnUse" x1="323.51324" x2="323.51324" y1="-141.41458" y2="-25.791676"><stop offset="0" stop-color="#8d6e63"/><stop offset="1" stop-color="#795548"/></linearGradient><linearGradient id="h" gradientUnits="userSpaceOnUse" x1="254" x2="254" y1="212.33333" y2="-115.75"><stop offset="0" stop-color="#e0e0e0"/><stop offset="1" stop-color="#eee"/></linearGradient><linearGradient id="i" gradientUnits="userSpaceOnUse" x1="11.90736" x2="11.90736" y1="21.0253985937" y2="2.17207772546"><stop offset="0" stop-color="#424242"/><stop offset="1" stop-color="#616161"/></linearGradient><path d="m5.953125 21.027344h11.90625v.992187h-11.90625zm0 0" fill="url(#a)"/><path d="m17.859375 21.027344h1.984375v-.996094h-1.984375zm0 0" fill="url(#c)"/><path d="m5.953125 21.027344h-1.984375v.992187h1.984375zm0 0" fill="url(#d)"/><path d="m5.953125 21.027344h-1.984375v-.996094h1.984375zm0 0" fill="url(#e)"/><path d="m17.859375 21.027344h1.984375v.992187h-1.984375zm0 0" fill="url(#f)"/><path d="m4.960938 4.652344h13.890624c.550782 0 .992188.445312.992188.992187v14.386719c0 .550781-.441406.996094-.992188.996094h-13.890624c-.546876 0-.992188-.445313-.992188-.996094v-14.386719c0-.546875.445312-.992187.992188-.992187zm0 0" fill="url(#g)"/><path d="m4.960938 4.722656c-.550782 0-.992188.441406-.992188.992188v.125c0-.550782.441406-.992188.992188-.992188h13.890624c.550782 0 .992188.441406.992188.992188v-.125c0-.550782-.441406-.992188-.992188-.992188zm0 0" fill="#fff" fill-opacity=".392157"/><path d="m4.960938 20.96875c-.550782 0-.992188-.441406-.992188-.992188v-.125c0 .550782.441406.992188.992188.992188h13.890624c.550782 0 .992188-.441406.992188-.992188v.125c0 .550782-.441406.992188-.992188.992188zm0 0" fill-opacity=".196078"/><path d="m105.823228-115.759477h296.305037c11.748878 0 21.164646 9.499093 21.164646 21.164646v306.88736c0 11.748878-9.415768 21.247971-21.164646 21.247971h-296.305037c-11.665553 0-21.164646-9.499093-21.164646-21.247971v-306.88736c0-11.665553 9.499093-21.164646 21.164646-21.164646zm0 0" fill="none" stroke="#212121" stroke-linecap="round" stroke-width="3" transform="matrix(.0468795 0 0 .0468795 0 10.079087)"/><path d="m126.987873-105.177154h253.975747c5.916101 0 10.582323 4.749546 10.582323 10.582323v296.305037c0 5.916102-4.666222 10.582323-10.582323 10.582323h-253.975747c-5.832776 0-10.582323-4.666221-10.582323-10.582323v-296.305037c0-5.832777 4.749547-10.582323 10.582323-10.582323zm0 0" fill="url(#h)" stroke="#212121" stroke-linecap="round" stroke-linejoin="round" stroke-width="3" transform="matrix(.0468795 0 0 .0468795 0 10.079087)"/><path d="m8.929688 2.171875c-.273438 0-.496094.222656-.496094.496094v.496093h-1.488282c-.273437 0-.496093.222657-.496093.496094v1.984375c0 .273438.222656.496094.496093.496094h9.921876c.277343 0 .496093-.222656.496093-.496094v-1.984375c0-.273437-.21875-.496094-.496093-.496094h-1.488282v-.496093c0-.273438-.21875-.496094-.496094-.496094zm0 0" fill="url(#i)"/><path d="m6.449219 5.644531v.496094c0 .277344.222656.496094.496093.496094h9.921876c.277343 0 .496093-.21875.496093-.496094v-.496094c0 .273438-.21875.496094-.496093.496094h-9.921876c-.273437 0-.496093-.222656-.496093-.496094zm0 0" fill-opacity=".235294"/><path d="m8.929688 2.171875c-.273438 0-.496094.222656-.496094.496094v.1875c0-.277344.222656-.496094.496094-.496094h5.953124c.277344 0 .496094.21875.496094.496094v-.1875c0-.273438-.21875-.496094-.496094-.496094zm-1.984376.992187c-.273437 0-.496093.222657-.496093.496094v.1875c0-.277344.222656-.496094.496093-.496094h1.488282v-.1875zm8.433594 0v.1875h1.488282c.277343 0 .496093.21875.496093.496094v-.1875c0-.273437-.21875-.496094-.496093-.496094zm0 0" fill="#fff" fill-opacity=".313725"/><path d="m719.931259 175.101391c-22.045139 0-39.996181 17.951042-39.996181 39.996181v39.996181h-119.988543c-22.045139 0-39.996181 17.951042-39.996181 39.996181v159.984725c0 22.045139 17.951042 39.996181 39.996181 39.996181h799.923621c22.36007 0 39.996181-17.951042 39.996181-39.996181v-159.984725c0-22.045139-17.636111-39.996181-39.996181-39.996181h-119.988543v-39.996181c0-22.045139-17.636111-39.996181-39.996181-39.996181zm0 0" fill="none" stroke="#212121" stroke-linecap="round" stroke-linejoin="round" stroke-width="11.338583" transform="scale(.0124035)"/><path d="m5.457031 19.535156v.25c0 .273438.222657.496094.496094.496094h11.90625c.277344 0 .496094-.222656.496094-.496094v-.25c0 .277344-.21875.496094-.496094.496094h-11.90625c-.273437 0-.496094-.21875-.496094-.496094zm0 0" fill-opacity=".235294"/><g fill="#f44336"><path d="m11.410156 7.628906h.992188c.273437 0 .496094.222656.496094.496094v5.953125c0 .273437-.222657.496094-.496094.496094h-.992188c-.273437 0-.496094-.222657-.496094-.496094v-5.953125c0-.273438.222657-.496094.496094-.496094zm0 0"/><path d="m11.410156 16.0625h.992188c.273437 0 .496094.207031.496094.460938v1.066406c0 .253906-.222657.457031-.496094.457031h-.992188c-.273437 0-.496094-.203125-.496094-.457031v-1.066406c0-.253907.222657-.460938.496094-.460938zm0 0"/></g></svg>

<?xml version="1.0" encoding="UTF-8"?>
<svg xmlns="http://www.w3.org/2000/svg" xmlns:xlink="http://www.w3.org/1999/xlink" width="24pt" height="24pt" viewBox="0 0 24 24" version="1.1">
<defs>
<linearGradient id="linear0" gradientUnits="userSpaceOnUse" x1="254" y1="233.5" x2="254" y2="254.66667" gradientTransform="matrix(0.0468795,0,0,0.0468795,-0.00000187518,10.079088)">
<stop offset="0" style="stop-color:rgb(0%,0%,0%);stop-opacity:0.27451;"/>
<stop offset="1" style="stop-color:rgb(0%,0%,0%);stop-opacity:0;"/>
</linearGradient>
<radialGradient id="radial0" gradientUnits="userSpaceOnUse" cx="450.90894" cy="189.57936" fx="450.90894" fy="189.57936" r="21.166656" gradientTransform="matrix(0.000000130628,-0.0585994,-0.105479,-0.0000000761539,37.609564,47.696501)">
<stop offset="0" style="stop-color:rgb(0%,0%,0%);stop-opacity:0.313725;"/>
<stop offset="0.222222" style="stop-color:rgb(0%,0%,0%);stop-opacity:0.27451;"/>
<stop offset="1" style="stop-color:rgb(0%,0%,0%);stop-opacity:0;"/>
</radialGradient>
<radialGradient id="radial1" gradientUnits="userSpaceOnUse" cx="450.90894" cy="189.57936" fx="450.90894" fy="189.57936" r="21.166656" gradientTransform="matrix(-0.000000130628,0.0585994,0.105479,0.0000000761539,-13.794787,-5.64561)">
<stop offset="0" style="stop-color:rgb(0%,0%,0%);stop-opacity:0.313725;"/>
<stop offset="0.222222" style="stop-color:rgb(0%,0%,0%);stop-opacity:0.27451;"/>
<stop offset="1" style="stop-color:rgb(0%,0%,0%);stop-opacity:0;"/>
</radialGradient>
<radialGradient id="radial2" gradientUnits="userSpaceOnUse" cx="450.90894" cy="189.57936" fx="450.90894" fy="189.57936" r="21.166656" gradientTransform="matrix(-0.000000130628,-0.0585994,0.105479,-0.0000000761539,-13.794787,47.696501)">
<stop offset="0" style="stop-color:rgb(0%,0%,0%);stop-opacity:0.313725;"/>
<stop offset="0.222222" style="stop-color:rgb(0%,0%,0%);stop-opacity:0.27451;"/>
<stop offset="1" style="stop-color:rgb(0%,0%,0%);stop-opacity:0;"/>
</radialGradient>
<radialGradient id="radial3" gradientUnits="userSpaceOnUse" cx="450.90894" cy="189.57936" fx="450.90894" fy="189.57936" r="21.166656" gradientTransform="matrix(0.000000130628,0.0585994,-0.105479,0.0000000761539,37.609562,-5.645609)">
<stop offset="0" style="stop-color:rgb(0%,0%,0%);stop-opacity:0.313725;"/>
<stop offset="0.222222" style="stop-color:rgb(0%,0%,0%);stop-opacity:0.27451;"/>
<stop offset="1" style="stop-color:rgb(0%,0%,0%);stop-opacity:0;"/>
</radialGradient>
<linearGradient id="linear1" gradientUnits="userSpaceOnUse" x1="323.51324" y1="-141.41458" x2="323.51324" y2="-25.791676" gradientTransform="matrix(0.0565122,0,0,0.163059,-4.39051,25.231011)">
<stop offset="0" style="stop-color:rgb(55.294118%,43.137255%,38.823529%);stop-opacity:1;"/>
<stop offset="1" style="stop-color:rgb(47.45098%,33.333333%,28.235294%);stop-opacity:1;"/>
</linearGradient>
<linearGradient id="linear2" gradientUnits="userSpaceOnUse" x1="254" y1="212.33333" x2="254" y2="-115.75" gradientTransform="matrix(1,0,0,1,0,0)">
<stop offset="0" style="stop-color:rgb(87.843137%,87.843137%,87.843137%);stop-opacity:1;"/>
<stop offset="1" style="stop-color:rgb(93.333333%,93.333333%,93.333333%);stop-opacity:1;"/>
</linearGradient>
<linearGradient id="linear3" gradientUnits="userSpaceOnUse" x1="960" y1="1695.1182" x2="960" y2="175.11813" gradientTransform="matrix(0.0124035,0,0,0.0124035,0,0)">
<stop offset="0" style="stop-color:rgb(25.882353%,25.882353%,25.882353%);stop-opacity:1;"/>
<stop offset="1" style="stop-color:rgb(38.039216%,38.039216%,38.039216%);stop-opacity:1;"/>
</linearGradient>
</defs>
<g id="surface1">
<path style=" stroke:none;fill-rule:nonzero;fill:url(#linear0);" d="M 5.953125 21.027344 L 17.859375 21.027344 L 17.859375 22.019531 L 5.953125 22.019531 Z M 5.953125 21.027344 "/>
<path style=" stroke:none;fill-rule:nonzero;fill:url(#radial0);" d="M 17.859375 21.027344 L 19.84375 21.027344 L 19.84375 20.03125 L 17.859375 20.03125 Z M 17.859375 21.027344 "/>
<path style=" stroke:none;fill-rule:nonzero;fill:url(#radial1);" d="M 5.953125 21.027344 L 3.96875 21.027344 L 3.96875 22.019531 L 5.953125 22.019531 Z M 5.953125 21.027344 "/>
<path style=" stroke:none;fill-rule:nonzero;fill:url(#radial2);" d="M 5.953125 21.027344 L 3.96875 21.027344 L 3.96875 20.03125 L 5.953125 20.03125 Z M 5.953125 21.027344 "/>
<path style=" stroke:none;fill-rule:nonzero;fill:url(#radial3);" d="M 17.859375 21.027344 L 19.84375 21.027344 L 19.84375 22.019531 L 17.859375 22.019531 Z M 17.859375 21.027344 "/>
<path style=" stroke:none;fill-rule:nonzero;fill:url(#linear1);" d="M 4.960938 4.652344 L 18.851562 4.652344 C 19.402344 4.652344 19.84375 5.097656 19.84375 5.644531 L 19.84375 20.03125 C 19.84375 20.582031 19.402344 21.027344 18.851562 21.027344 L 4.960938 21.027344 C 4.414062 21.027344 3.96875 20.582031 3.96875 20.03125 L 3.96875 5.644531 C 3.96875 5.097656 4.414062 4.652344 4.960938 4.652344 Z M 4.960938 4.652344 "/>
<path style=" stroke:none;fill-rule:nonzero;fill:rgb(100%,100%,100%);fill-opacity:0.392157;" d="M 4.960938 4.722656 C 4.410156 4.722656 3.96875 5.164062 3.96875 5.714844 L 3.96875 5.839844 C 3.96875 5.289062 4.410156 4.847656 4.960938 4.847656 L 18.851562 4.847656 C 19.402344 4.847656 19.84375 5.289062 19.84375 5.839844 L 19.84375 5.714844 C 19.84375 5.164062 19.402344 4.722656 18.851562 4.722656 Z M 4.960938 4.722656 "/>
<path style=" stroke:none;fill-rule:nonzero;fill:rgb(0%,0%,0%);fill-opacity:0.196078;" d="M 4.960938 20.96875 C 4.410156 20.96875 3.96875 20.527344 3.96875 19.976562 L 3.96875 19.851562 C 3.96875 20.402344 4.410156 20.84375 4.960938 20.84375 L 18.851562 20.84375 C 19.402344 20.84375 19.84375 20.402344 19.84375 19.851562 L 19.84375 19.976562 C 19.84375 20.527344 19.402344 20.96875 18.851562 20.96875 Z M 4.960938 20.96875 "/>
<path style="fill:none;stroke-width:3;stroke-linecap:round;stroke-linejoin:miter;stroke:rgb(12.941176%,12.941176%,12.941176%);stroke-opacity:1;stroke-miterlimit:4;" d="M 105.823228 -115.759477 L 402.128265 -115.759477 C 413.877143 -115.759477 423.292911 -106.260384 423.292911 -94.594831 L 423.292911 212.292529 C 423.292911 224.041407 413.877143 233.5405 402.128265 233.5405 L 105.823228 233.5405 C 94.157675 233.5405 84.658582 224.041407 84.658582 212.292529 L 84.658582 -94.594831 C 84.658582 -106.260384 94.157675 -115.759477 105.823228 -115.759477 Z M 105.823228 -115.759477 " transform="matrix(0.0468795,0,0,0.0468795,0,10.079087)"/>
<path style="fill-rule:nonzero;fill:url(#linear2);stroke-width:3;stroke-linecap:round;stroke-linejoin:round;stroke:rgb(12.941176%,12.941176%,12.941176%);stroke-opacity:1;stroke-miterlimit:4;" d="M 126.987873 -105.177154 L 380.96362 -105.177154 C 386.879721 -105.177154 391.545943 -100.427608 391.545943 -94.594831 L 391.545943 201.710206 C 391.545943 207.626308 386.879721 212.292529 380.96362 212.292529 L 126.987873 212.292529 C 121.155097 212.292529 116.40555 207.626308 116.40555 201.710206 L 116.40555 -94.594831 C 116.40555 -100.427608 121.155097 -105.177154 126.987873 -105.177154 Z M 126.987873 -105.177154 " transform="matrix(0.0468795,0,0,0.0468795,0,10.079087)"/>
<path style=" stroke:none;fill-rule:nonzero;fill:url(#linear3);" d="M 8.929688 2.171875 C 8.65625 2.171875 8.433594 2.394531 8.433594 2.667969 L 8.433594 3.164062 L 6.945312 3.164062 C 6.671875 3.164062 6.449219 3.386719 6.449219 3.660156 L 6.449219 5.644531 C 6.449219 5.917969 6.671875 6.140625 6.945312 6.140625 L 16.867188 6.140625 C 17.144531 6.140625 17.363281 5.917969 17.363281 5.644531 L 17.363281 3.660156 C 17.363281 3.386719 17.144531 3.164062 16.867188 3.164062 L 15.378906 3.164062 L 15.378906 2.667969 C 15.378906 2.394531 15.160156 2.171875 14.882812 2.171875 Z M 8.929688 2.171875 "/>
<path style=" stroke:none;fill-rule:nonzero;fill:rgb(0%,0%,0%);fill-opacity:0.235294;" d="M 6.449219 5.644531 L 6.449219 6.140625 C 6.449219 6.417969 6.671875 6.636719 6.945312 6.636719 L 16.867188 6.636719 C 17.144531 6.636719 17.363281 6.417969 17.363281 6.140625 L 17.363281 5.644531 C 17.363281 5.917969 17.144531 6.140625 16.867188 6.140625 L 6.945312 6.140625 C 6.671875 6.140625 6.449219 5.917969 6.449219 5.644531 Z M 6.449219 5.644531 "/>
<path style=" stroke:none;fill-rule:nonzero;fill:rgb(100%,100%,100%);fill-opacity:0.313725;" d="M 8.929688 2.171875 C 8.65625 2.171875 8.433594 2.394531 8.433594 2.667969 L 8.433594 2.855469 C 8.433594 2.578125 8.65625 2.359375 8.929688 2.359375 L 14.882812 2.359375 C 15.160156 2.359375 15.378906 2.578125 15.378906 2.855469 L 15.378906 2.667969 C 15.378906 2.394531 15.160156 2.171875 14.882812 2.171875 Z M 6.945312 3.164062 C 6.671875 3.164062 6.449219 3.386719 6.449219 3.660156 L 6.449219 3.847656 C 6.449219 3.570312 6.671875 3.351562 6.945312 3.351562 L 8.433594 3.351562 L 8.433594 3.164062 Z M 15.378906 3.164062 L 15.378906 3.351562 L 16.867188 3.351562 C 17.144531 3.351562 17.363281 3.570312 17.363281 3.847656 L 17.363281 3.660156 C 17.363281 3.386719 17.144531 3.164062 16.867188 3.164062 Z M 15.378906 3.164062 "/>
<path style="fill:none;stroke-width:11.338583;stroke-linecap:round;stroke-linejoin:round;stroke:rgb(12.941176%,12.941176%,12.941176%);stroke-opacity:1;stroke-miterlimit:4;" d="M 719.931259 175.101391 C 697.88612 175.101391 679.935078 193.052433 679.935078 215.097572 L 679.935078 255.093753 L 559.946535 255.093753 C 537.901396 255.093753 519.950354 273.044795 519.950354 295.089934 L 519.950354 455.074659 C 519.950354 477.119798 537.901396 495.07084 559.946535 495.07084 L 1359.870156 495.07084 C 1382.230226 495.07084 1399.866337 477.119798 1399.866337 455.074659 L 1399.866337 295.089934 C 1399.866337 273.044795 1382.230226 255.093753 1359.870156 255.093753 L 1239.881613 255.093753 L 1239.881613 215.097572 C 1239.881613 193.052433 1222.245502 175.101391 1199.885432 175.101391 Z M 719.931259 175.101391 " transform="matrix(0.0124035,0,0,0.0124035,0,0)"/>
<path style=" stroke:none;fill-rule:nonzero;fill:rgb(0%,0%,0%);fill-opacity:0.235294;" d="M 5.457031 19.535156 L 5.457031 19.785156 C 5.457031 20.058594 5.679688 20.28125 5.953125 20.28125 L 17.859375 20.28125 C 18.136719 20.28125 18.355469 20.058594 18.355469 19.785156 L 18.355469 19.535156 C 18.355469 19.8125 18.136719 20.03125 17.859375 20.03125 L 5.953125 20.03125 C 5.679688 20.03125 5.457031 19.8125 5.457031 19.535156 Z M 5.457031 19.535156 "/>
<path style=" stroke:none;fill-rule:nonzero;fill:rgb(95.686275%,26.27451%,21.176471%);fill-opacity:1;" d="M 11.410156 7.628906 L 12.402344 7.628906 C 12.675781 7.628906 12.898438 7.851562 12.898438 8.125 L 12.898438 14.078125 C 12.898438 14.351562 12.675781 14.574219 12.402344 14.574219 L 11.410156 14.574219 C 11.136719 14.574219 10.914062 14.351562 10.914062 14.078125 L 10.914062 8.125 C 10.914062 7.851562 11.136719 7.628906 11.410156 7.628906 Z M 11.410156 7.628906 "/>
<path style=" stroke:none;fill-rule:nonzero;fill:rgb(95.686275%,26.27451%,21.176471%);fill-opacity:1;" d="M 11.410156 16.0625 L 12.402344 16.0625 C 12.675781 16.0625 12.898438 16.269531 12.898438 16.523438 L 12.898438 17.589844 C 12.898438 17.84375 12.675781 18.046875 12.402344 18.046875 L 11.410156 18.046875 C 11.136719 18.046875 10.914062 17.84375 10.914062 17.589844 L 10.914062 16.523438 C 10.914062 16.269531 11.136719 16.0625 11.410156 16.0625 Z M 11.410156 16.0625 "/>
</g>
</svg>
